X:284
T:Paddy Ryan's Nightmare
Z: id:dc-reel-264
M:C
L:1/8
K:G Major
DGG2 BGAF|DGGF GDB,D|DGGF GABc|dfeg fdcA|!
BGG2 BGAF|DGGF GDB,G,|A,B,CD EGAB|cAFA G4:|!
dgg2 dgbg|dgbg agfg|eaa2 ^caea|a^gab a=gfe|!
dgg2 dgbg|dgbg agfe|dega bgdB|cAFA G4:|!

